X:1
T:The Legacy -- Jig
R:jig
B:Ryan's Mammoth Collection.
Z:Contributed by Ray Davies. ray:davies99.freeserve.co.uk
M:6/8
L:1/8
K:D
uA|v(d2.d) dAF|(a2.a) afd|(d2.e) {g}fef|(B2.c) (d2.A)|
v(d2.d) dAF|(a2.a) afd|(d2.e) {g}fef|(B2c) d2::
uA|"1"d"3"f"1"a "4"(d'2.d')|"3"(c'"2"b)"1".a "2"(b"1"a)"3".f|
"1"d"3"f"1"a "4"(d'2.d')|(c'b).a b2c'|
v(d'2.d') c'ba|"2"(b2.b) "1"a"3"f"1"d|(d2.e) {g}"3"f"2"e"3"f|"1"(B2c) d2:|
